X:48
T:Shearing the Sheep
R:Reel
A:Ireland
M:C|
N:combination of O'Neill's (Krassen) and Kim Vincent
L:1/8
K:A
"A"EA A/A/A ABcA | ABcA "F#m"BF F/F/F | "A" EA A/A/A "F#m" ABce |1 "E" (3efg ec "D" d2 cB :|2 "E"(3efg ec "A" A2 cd ||
"A" e2 ae feaf | eaec "D"~d2 cd | "A"~e2 ae feaf | afec "D"d2 cd  |
"A" e2 ae feaf | eaec "D"~d2 cB | "F#m"~c3 B cefg | "A"afec "D"(3dcB cA |
